dist/icons/services/it-services.svg

<svg width="84" height="84" viewBox="0 0 84 84" fill="none" xmlns="http://www.w3.org/2000/svg">
<path fill-rule="evenodd" clip-rule="evenodd" d="M3.51472 3.51472C5.76516 1.26428 8.8174 0 12 0H72C75.1826 0 78.2348 1.26428 80.4853 3.51472C82.7357 5.76515 84 8.8174 84 12V55.3333C84 58.5159 82.7357 61.5682 80.4853 63.8186C78.2348 66.0691 75.1826 67.3333 72 67.3333H57.3333V69.8089C57.3332 71.2977 57.6263 72.7722 58.1961 74.1477C58.7659 75.5232 59.6011 76.773 60.654 77.8256L63.4142 80.5858C63.9862 81.1578 64.1573 82.018 63.8478 82.7654C63.5382 83.5127 62.8089 84 62 84H22C21.1911 84 20.4618 83.5127 20.1522 82.7654C19.8427 82.018 20.0138 81.1578 20.5858 80.5858L23.3458 77.8258C24.3987 76.7732 25.2341 75.5232 25.8039 74.1477C26.3737 72.7722 26.6668 71.298 26.6667 69.8091V67.3333H12C8.8174 67.3333 5.76515 66.0691 3.51472 63.8186C1.26428 61.5682 0 58.5159 0 55.3333V12C0 8.8174 1.26428 5.76516 3.51472 3.51472ZM4 12V42C4 44.1217 4.84285 46.1566 6.34315 47.6569C7.84344 49.1571 9.87827 50 12 50H72C74.1217 50 76.1566 49.1571 77.6569 47.6569C79.1572 46.1566 80 44.1217 80 42V12C80 9.87827 79.1572 7.84344 77.6569 6.34315C76.1566 4.84285 74.1217 4 72 4H12C9.87827 4 7.84344 4.84285 6.34315 6.34315C4.84285 7.84344 4 9.87827 4 12ZM80 50.9443C77.8059 52.9069 74.9593 54 72 54H12C9.04069 54 6.19409 52.9069 4 50.9443V55.3333C4 57.4551 4.84285 59.4899 6.34315 60.9902C7.84344 62.4905 9.87827 63.3333 12 63.3333H72C74.1217 63.3333 76.1566 62.4905 77.6569 60.9902C79.1572 59.4899 80 57.4551 80 55.3333V50.9443ZM53.3333 67.3333H30.6667V69.8087C30.6667 69.8087 30.6667 69.8086 30.6667 69.8087C30.6669 71.8229 30.2702 73.8176 29.4994 75.6785C28.8435 77.262 27.9275 78.7224 26.7913 80H57.2087C56.0725 78.7224 55.1565 77.262 54.5006 75.6785C53.7298 73.8176 53.3331 71.8231 53.3333 69.8089C53.3333 69.8088 53.3333 69.809 53.3333 69.8089V67.3333Z" fill="#C3B18D"/>
</svg>

<svg width="84" height="84" fill="none" xmlns="http://www.w3.org/2000/svg">
    <path fill-rule="evenodd" clip-rule="evenodd" d="M3.515 3.515A12 12 0 0 1 12 0h60a12 12 0 0 1 12 12v43.333a12 12 0 0 1-12 12H57.333v2.476a11.335 11.335 0 0 0 3.321 8.017l2.76 2.76A2 2 0 0 1 62 84H22a2 2 0 0 1-1.414-3.414l2.76-2.76a11.336 11.336 0 0 0 3.32-8.017v-2.476H12a12 12 0 0 1-12-12V12a12 12 0 0 1 3.515-8.485ZM4 12v30a8 8 0 0 0 8 8h60a8 8 0 0 0 8-8V12a8 8 0 0 0-8-8H12a8 8 0 0 0-8 8Zm76 38.944A12 12 0 0 1 72 54H12a12 12 0 0 1-8-3.056v4.39a8 8 0 0 0 8 8h60a8 8 0 0 0 8-8v-4.39Zm-26.667 16.39H30.667v2.475A15.335 15.335 0 0 1 26.79 80H57.21a15.332 15.332 0 0 1-3.876-10.191v-2.476Z" fill="#C3B18D"/>
</svg>
